X:67
T: GENIESST DEN REIZ DES LEBENS
N: B0553
O: Europa, Mitteleuropa, Deutschland
R: Studenten -, Trink - Lied
M: 6/8
L: 1/8
K: F
C | F2FA2F | D3B2
A | G2GBGE | F2z3
C | F2FA2F | D3B2
A | G2GBGE | F2Ac2
c | d2dfed | c3Az
A | GBAGFE | F2z3

@@@ Tune index: 2285
